X:1
T:Religion
T:A minor Stephen Jenks, 1804
T:Isaac Watts, 1719 (Psalm 39, Part 2)                  86. 86. (C. M.)
T:Transcribed from Jenks' Delights of Harmony, 1805.
%%score [ 1 2 3 4 ]
L:1/8
Q:1/4=100
M:4/4
K:C
V:1 treble nm="Voice"
V:2 treble nm="Voice"
V:3 treble-8 nm="Tenor"
V:4 bass nm="Bass"
V:1
"_1.  Some walk in honor's   gaudy  show,  Some  dig  for  golden ore;  They toil for heirs, they know not who,  And straight are seen  no  more." A8 | %1
 A2 BG A2 E2 | cB A2 B2 e2 | e2 cB A2 ^G2 | A6 ed | c2 A2 G2 E2 | A2 Bc e2 d2 | e2 dc B>c A^G | %8
 A6 z2 |: z8 | z4 z2"_Now" E>F | %11
"_I          forbid   my          car – nal       hope,   My    fond   desires    re    –    call;                                   I           give    my  mor–tal     in – terest up,   And make  my   God      my       all." G3 A G2 c2 | %12
 de dc B2 AB | c2 A2 ^G2 E>D | E6 z2 | z4 z2 B2 | c2 BA B2 G2 | A2 GA B2 AB | c3 A ^GE DE |1 %19
 A6 z2 :|2 A8 |] %21
V:2
 E8 | E2 E2 A2 GE | E2 E2 G2 G2 | G2 GE A2 E2 | E6 G2 | A2 E2 G2 GF | E2 EF G2 G2 | GE A2 E2 E2 | %8
 E6 z2 |: z8 | z8 | %11
 z4 z2"_Now        I            for – bid   my         car – nal hope,  My    fond desires re – call;     I          give  my    mor–tal    in – terest up,   And make  my  God       my       all." E>F | %12
 G3 E ^G2 A2 | GA GF E2 AB | c2 A2 G2 E>D | E6 EF | GE A2 G2 GF | EA GF E2 EF | G3 F E2 EC |1 %19
 E6 z2 :|2 E8 |] %21
V:3
"_1.  Some walk in honor's  gaudy   show,  Some dig for golden ore;  They toil for heirs, they know not who,  And straight are seen  no     more.                                        Now       I    forbid  my" A8 | %1
 e2 dc d2 B2 | cd ec B2 cA | G2 E2 D2 E2 | A6 cd | e2 e2 d2 B2 | c2 BA B2 d2 | c2 cB ^GE DE | %8
 A6 z2 |: z4 z2 E>F | G3 A G2 ce | %11
"_car – nal   hope,  My     fond    de  –  sires  re   –     call;                                                                               I          give   my    mor–tal    in – terest up,   And  make  my  God      my     all." de dc B2 AB | %12
 c2 A2 ^G2 E>D | E6 z2 | z8 | z4 z2 cd | e2 dc d2 ed | c2 dc B2 cd | e3 c B>c AG |1 A6 z2 :|2 A8 |] %21
V:4
 A,,8 | A,,2 E,2 D,2 G,2 | A,B, CA, G,2 E,2 | C,2 E,2 F,2 E,2 | A,,6 E,2 | A,2 C2 B,2 G,2 | %6
 A,2 G,F, E,2 G,2 | C,2 D,2 E,2 E,2 | %8
"_Now         I   forbid    my     carnal hope,  My" A,,6 A,,>B,, |: C,3 D, C,2 C,D, | %10
 E,2 E,2 E,2 C,2 | %11
"_fond  de–sires  re   –    call;  _____________________________________________      I        give  my    mor–tal      in – terest up,  And  make  my  God       my      all.     Now" G,2 G,2 G,2 A,2 | %12
"________________________________________________________________\nEdited by B. C. Johnston, 2016\n   1. Measure 6, \nTreble\n: third note changed from G# to G (as in \nCounter\n).\n   2. Measure 13, \nCounter\n: third note changed from G to G# (as in \nTenor\n).\n   3. Measure 17, Treble: last note changed from G# to G (as in Counter)." E,8- | %13
 E,8- | E,8- | E,6 E,D, | C,2 D,2 G,2 E,2 | A,2 B,A, E,2 E,D, | C,3 D, E,2 E,2 |1 A,,6 A,,>B,, :|2 %20
 A,,8 |] %21

